**kern	**kern	**kern	**kern	**harm
*staff4	*staff3	*staff2	*staff1	*staff1
=1-	=1-	=1-	=1-	=1-
*clefF4	*clefF4	*clefG2	*clefG2	*
*k[b-]	*k[b-]	*k[b-]	*k[b-]	*
*M6/8	*M6/8	*M6/8	*M6/8	*
*	*	*	*MM120	*
*F:	*F:	*F:	*F:	*F:
2.r	2.r	2.r	4.r	.
.	.	.	4r	.
.	.	.	16f/LL	I
.	.	.	16a/JJ	.
=2	=2	=2	=2	=2
4F\	4A\	4f/	8cc\L	I
.	.	.	8cc\	.
8G\	8B-\	8e/	8cc\J	V43
4F\	4A\	4f/	8.cc\L	I
.	.	.	16bn\K	.
8G\	8B-\	8e/	8cc\J	V43
=3	=3	=3	=3	=3
4F\	4A\	4f/	8.cc\L	I
.	.	.	16bn\K	.
8G\	8B-\	8e/	8cc\J	V43
4F\	4A\	4f/	8.cc\L	I
.	.	.	16b\K	.
8G\	8B-\	8e/	8cc\J	V43
=4	=4	=4	=4	=4
!!linebreak:original
8F\L	8A/L	8f/L	4cc\	I
*	*clefG2	*	*	*
8F\	8c/	8a/	.	.
8F\J	8c/J	8a/J	8ff\	.
8F\L	8c/L	8a/L	4ff\	.
8F\	8c/	8a/	.	.
8F\J	8c/J	8a/J	8aa\	.
=5	=5	=5	=5	=5
8F\L	8c/L	8a/L	4aa\	.
8F\	8c/	8a/	.	.
8F\J	8c/J	8a/J	8ccc\	.
4.F'\	4.c'/	4.a'/	4ccc\	.
*	*	*	*clefF4	*
.	.	.	16G\LL	.
.	.	.	16A\JJ	.
=6	=6	=6	=6	=6
*	*clefF4	*	*	*
4CC/	4E\	4g/	8B-\L	V7
.	.	.	8B-\	.
8CC#/	8E\	8f#/	8B-\J	.
4CCn/	4E\	4g/	8.B-\L	.
.	.	.	16A\K	.
8CC#/	8E\	8f#/	8B-\J	.
=7	=7	=7	=7	=7
4CC/	4E\	4g/	8.B-\L	.
.	.	.	16A\K	.
8CC#/	8E\	8f#/	8B-\J	.
4CCn/	4E\	4g/	8.B-\L	.
.	.	.	16A\K	.
8CC#/	8E\	8f#/	8B-\J	.
=8	=8	=8	=8	=8
!!linebreak:original
8CC/L	8E\L	8g/L	4B-\	V7
8CC/	8E\	8B-/ 8g/	.	.
*	*	*	*clefG2	*
8CC/J	8E\J	8B-/J 8g/	8e/	.
8CC/L	8E\L	8B-/L 8g/	4e/	.
8CC/	8E\	8B-/ 8g/	.	.
8CC/J	8E\J	8B-/J 8g/	8g/	.
=9	=9	=9	=9	=9
8CC/L	8E\L	8B-/L 8g/	4g/	.
8CC/	8E\	8B-/ 8g/	.	.
8CC/J	8E\J	8B-/J 8g/	8b-\	.
8CC/L	8E\L	8B-/L 8g/	4b-\	.
8CC/	8E\	8B-/ 8g/	.	.
8CC/J	8E\J	8B-/J 8g/	8B-/	.
=10	=10	=10	=10	=10
8FF/L	8F/L	8A/L 8f/	8A/L	I
8FF/	8A/	8A/	8f/	.
*	*clefG2	*	*	*
8FF/J	8c/J	8A/J	8f/J	.
8AA/L	8f/L	8c/L	8.f/L	.
8AA/	8c/	8c/	.	.
.	.	.	16e/K	.
8AA/J	8A/J	8c/J	8f/J	.
=11	=11	=11	=11	=11
8BB-/L	8B-/L	8d/L	8d/L	IV
8BB-/	8d/	8d/	8b-/	.
8BB-/J	8f/J	8d/J	8b-/J	.
8BB-/L	8d\L	8d/L	8.b-/L	.
*	*clefF4	*	*	*
8BB-/	8B-\	8d/	.	.
.	.	.	16a/K	.
8BB-/J	8F\J	8d/J	8b-/J	.
=12	=12	=12	=12	=12
!!pagebreak:original
*	*	*clefF4	*	*
8C/L	8E\L	8B-\L	8c/L	V7
8C/	8E\	8B-\	8c/	.
8C/J	8E\J	8B-\J	8c/J	.
8C/L	8E\L	8B-\L	8c/L	.
8C/	8F\	8A\	8d/	.
8C/J	8G\J	8G\J	8e/J	.
=13	=13	=13	=13	=13
4.FF'/	4.F'\	4.A'\	4.f'/	I
4.r	4.r	4.r	4r	.
.	.	.	16f/LL	I
.	.	.	16a/JJ	.
=14	=14	=14	=14	=14
8r	8r	8r	8cc\L	I
*	*	*clefG2	*	*
8F\L	8A\L	8f/L	8cc\	.
8G\J	8B-\J	8e/J	8cc\J	V43
8r	8r	8r	8.cc\L	.
8F\L	8A\L	8f/L	.	I
.	.	.	16bn\K	.
8G\J	8B-\J	8e/J	8cc\J	V43
=15	=15	=15	=15	=15
8r	8r	8r	8.cc\L	I
8F\L	8A\L	8f/L	.	.
.	.	.	16bn\K	.
8G\J	8B-\J	8e/J	8cc\J	V43
8r	8r	8r	8.cc\L	.
8F\L	8A\L	8f/L	.	I
.	.	.	16b\K	.
8G\J	8B-\J	8e/J	8cc\J	V43
=16	=16	=16	=16	=16
!!linebreak:original
8F\L	8A/L	8f/L	4cc\	I
*	*clefG2	*	*	*
8F\	8c/	8a/	.	.
8F\J	8c/J	8a/J	8ff\	.
8F\L	8c/L	8a/L	4ff\	.
8F\	8c/	8a/	.	.
8F\J	8c/J	8a/J	8aa\	.
=17	=17	=17	=17	=17
8F\L	8c/L	8a/L	4aa\	.
8F\	8c/	8a/	.	.
8F\J	8c/J	8a/J	8ccc\	.
4.F'\	4.c'/	4.a'/	4ccc\	.
*	*	*	*clefF4	*
.	.	.	16G\LL	.
.	.	.	16A\JJ	.
=18	=18	=18	=18	=18
8r	8r	8r	8B-\L	V7
*	*clefF4	*	*	*
8CC/L	8E\L	8g/L	8B-\	.
8CC#/J	8E\J	8f#/J	8B-\J	.
8r	8r	8r	8.B-\L	.
8CCn/L	8E\L	8g/L	.	.
.	.	.	16A\K	.
8CC#/J	8E\J	8f#/J	8B-\J	.
=19	=19	=19	=19	=19
8r	8r	8r	8.B-\L	.
8CC/L	8E\L	8g/L	.	.
.	.	.	16A\K	.
8CC#/J	8E\J	8f#/J	8B-\J	.
8r	8r	8r	8.B-\L	.
8CCn/L	8E\L	8g/L	.	.
.	.	.	16A\K	.
8CC#/J	8E\J	8f#/J	8B-\J	.
=20	=20	=20	=20	=20
!!linebreak:original
8CC/L	8E\L	8g/L	4B-\	V7
8CC/	8E\	8B-/ 8g/	.	.
*	*	*	*clefG2	*
8CC/J	8E\J	8B-/J 8g/	8e/	.
8CC/L	8E\L	8B-/L 8g/	4e/	.
8CC/	8E\	8B-/ 8g/	.	.
8CC/J	8E\J	8B-/J 8g/	8g/	.
=21	=21	=21	=21	=21
8CC/L	8E\L	8B-/L 8g/	4g/	.
8CC/	8E\	8B-/ 8g/	.	.
8CC/J	8E\J	8B-/J 8g/	8b-\	.
8CC/L	8E\L	8B-/L 8g/	4b-\	.
8CC/	8E\	8B-/ 8g/	.	.
8CC/J	8E\J	8B-/J 8g/	8B-/	.
=22	=22	=22	=22	=22
8FF/L	8F/L	8A/L 8f/	8A/L	I
8FF/	8A/	8A/	8f/	.
*	*clefG2	*	*	*
8FF/J	8c/J	8A/J	8f/J	.
8AA/L	8f/L	8c/L	8.f/L	.
8AA/	8c/	8c/	.	.
.	.	.	16e/K	.
8AA/J	8A/J	8c/J	8f/J	.
=23	=23	=23	=23	=23
8BB-/L	8B-/L	8d/L	8d/L	IV
8BB-/	8d/	8d/	8b-/	.
8BB-/J	8f/J	8d/J	8b-/J	.
8BB-/L	8b-/L	8d/L	8.b-/L	.
8BB-/	8f/	8d/	.	.
.	.	.	16a/K	.
8BB-/J	8d/J	8d/J	8b-/J	.
=24	=24	=24	=24	=24
!!pagebreak:original
8BB-/L	[4.f/	8g/L	8g\L	ii65
8BB-/	.	8g/	8dd\	.
8BB-/J	.	8g/J	8dd\J	.
*C:	*C:	*C:	*C:	*C:
8BBn/L	8f/L]	8g/L	8.dd\L	V65
8BB/	8e/	8g/	.	.
.	.	.	16ee\K	.
8BB/J	8d/J	8g/J	8ff\J	.
=25	=25	=25	=25	=25
8C\L	4.c'/	4.f/	4.a/	I
8c\	.	.	.	.
8C\J	.	.	.	.
4.C'/	4.r	4.e'/	4g'/	.
.	.	.	16cc\LL	.
.	.	.	16ee\JJ	.
=26	=26	=26	=26	=26
2.r	2.r	16c/LL	8gg\L	I
.	.	16d/	.	.
.	.	16e/	8gg\	.
.	.	16f/	.	.
.	.	16g/	8gg\J	.
.	.	16a/JJ	.	.
.	.	16bn\LL	8.gg\L	.
.	.	16cc\	.	.
.	.	16dd\	.	.
.	.	16ee\	16ff#\K	.
.	.	16dd\	8gg\J	.
.	.	16cc\JJ	.	.
=27	=27	=27	=27	=27
16GG/LL	2.r	8ff\L	[2.gg\	V7
16AA/	.	.	.	.
16BBn/	.	8ff\	.	.
16C/	.	.	.	.
16D/	.	8ff\J	.	.
16E/JJ	.	.	.	.
16F\LL	.	8.ff\L	.	.
16G\	.	.	.	.
16A\	.	.	.	.
16Bn\	.	16ee\K	.	.
16A\	.	8ff\J	.	.
16G\JJ	.	.	.	.
=28	=28	=28	=28	=28
!!linebreak:original
*	*clefF4	*	*	*
4.c'\	16C\LL	[4.ee\	8gg\L]	I
.	16D\	.	.	.
.	16E\	.	8gg\	.
.	16F\	.	.	.
.	16G\	.	8gg\J	.
.	16A\JJ	.	.	.
4.r	16Bn/LL	8ee\L]	8.gg\L	.
*	*clefG2	*	*	*
.	16c/	.	.	.
.	16d/	8bn\	.	.
.	16e/	.	16ff#\K	.
.	16d/	8cc\J	8gg\J	.
.	16c/JJ	.	.	.
=29	=29	=29	=29	=29
16GG/LL	8f/L	16bn\LL	[2.gg\	V7
16AA/	.	16cc\	.	.
16BBn/	8f/	16dd\	.	.
16C/	.	16cc\	.	.
16D/	8f/J	16b\	.	.
16E/JJ	.	16a\JJ	.	.
16F\LL	8.f/L	16g/LL	.	.
16G\	.	16f/	.	.
16A\	.	16e/	.	.
16Bn\	16e/K	16d/	.	.
16A\	8f/J	16c/	.	.
16G\JJ	.	16Bn/JJ	.	.
=30	=30	=30	=30	=30
!!linebreak:original
*clefG2	*	*	*	*
*c:	*c:	*c:	*c:	*c:
8c/L	8e-/L	8c/L	16gg\LL]	i
.	.	.	16bbn\	.
8c/	8e-/	8g/	16ccc\	.
.	.	.	16bb\	.
8c/J	8e-/J	8g/J	16ccc\	.
.	.	.	16bb\JJ	.
8c/L	8e-/L	8g/L	16ccc\LL	.
.	.	.	16ddd\	.
8c/	8e-/	8g/	16eee-\	.
.	.	.	16ddd\	.
8c/J	8e-/J	8g/J	16eee-\	.
.	.	.	16ddd\JJ	.
=31	=31	=31	=31	=31
[2.c/	2.e-/	2.a-/	8eee-\L	-VI
.	.	.	8ccc\	.
.	.	.	8aa-\J	.
.	.	.	8ee-\L	.
.	.	.	8cc\	.
.	.	.	8a-\J	.
=32	=32	=32	=32	=32
8c/L]	2.c/	2.e-/	4.g/	i
8c/	.	.	.	.
8c/J	.	.	.	.
8c/L	.	.	4.f#/	viio43/V
8c/	.	.	.	.
8c/J	.	.	.	.
=33	=33	=33	=33	=33
!!pagebreak:original
*clefF4	*	*	*	*
*C:	*C:	*C:	*C:	*C:
4.Bn'\	4.d'/	4.d'/	16g/LL	V6
.	.	.	16a/	.
.	.	.	16bn/	.
.	.	.	16a/	.
.	.	.	16g/	.
.	.	.	16a/JJ	.
4.B'\	4.d'/	4.g'/	16b\LL	.
.	.	.	16cc\	.
.	.	.	16dd\	.
.	.	.	16cc\	.
.	.	.	16b\	.
.	.	.	16cc\JJ	.
=34	=34	=34	=34	=34
4.Bn'\	4.d'/	4.g'/	16dd\LL	V65
.	.	.	16ee\	.
.	.	.	16ff\	.
.	.	.	16ee\	.
.	.	.	16dd\	.
.	.	.	16ee\JJ	.
4.B'\	4.d'/	4.g'/	16ff\LL	.
.	.	.	16ee\	.
.	.	.	16dd\	.
.	.	.	16ee\	.
.	.	.	16ff\	.
.	.	.	16gg\JJ	.
=35	=35	=35	=35	=35
4.Bn'\	4.d'/	4.f'/	2.aa\	viio7
4.r	4.r	4.r	.	.
=36	=36	=36	=36	=36
!!linebreak:original
16F\LL	2.r	4.bn\	4.aa\	.
16G\	.	.	.	.
16A\	.	.	.	.
16Bn\	.	.	.	.
16c\	.	.	.	.
16d\JJ	.	.	.	.
8e\L	.	8cc\L	8gg\L	I6
8e\	.	8cc\	8gg\	.
8e\J	.	8cc\J	8gg\J	.
=37	=37	=37	=37	=37
16D/LL	2.r	4bn\	4.ff\	viio6
16E/	.	.	.	.
16F/	.	.	.	.
16G/	.	.	.	.
*clefG2	*	*	*	*
16A/	.	16cc\LL	.	.
16Bn/JJ	.	16dd\JJ	.	.
8c/L	.	8g/L	8ee\L	I6
8c/	.	8g/	8ee\	.
8c/J	.	8g/J	8ee\J	.
=38	=38	=38	=38	=38
2.r	2.r	8f/L	16a\LL	ii
.	.	.	16bn\	.
.	.	8e/	16cc\	.
.	.	.	16dd\	.
.	.	8d/J	16ee\	.
.	.	.	16ff\JJ	.
.	.	8g/L	16b\LL	iii
.	.	.	16cc\	.
.	.	8f/	16dd\	.
.	.	.	16ee\	.
.	.	8e/J	16ff\	.
.	.	.	16gg\JJ	.
=39	=39	=39	=39	=39
!!linebreak:original
2.r	2.r	8a/L	16cc\LL	IV
.	.	.	16dd\	.
.	.	8g/	16ee\	.
.	.	.	16ff\	.
.	.	8f/J	16gg\	.
.	.	.	16aa\JJ	.
.	.	8bn/L	16dd\LL	V
.	.	.	16ee\	.
.	.	8a/	16ff\	.
.	.	.	16gg\	.
.	.	8g/J	16aa\	.
.	.	.	16bbn\JJ	.
=40	=40	=40	=40	=40
2.r	2.r	4cc\	4ccc\	I
.	.	8ee\	8eee\	.
.	.	4gg\	4ggg\	.
.	.	8ee\	8eee\	.
=41	=41	=41	=41	=41
4r	4r	8cc/L	8ccc\L	.
.	.	8g/	8gg\	.
*clefF4	*clefF4	*	*	*
8E\	8e\	8e/J	8ee\J	.
8C/L	8c\L	8cc/L	8cc/L	viio/V
8AA/	8A\	8a/	8a/	.
8FF#/J	8F#\J	8f#/J	8f#/J	.
=42	=42	=42	=42	=42
[2.GG/	8G/L	4.g/	8g\L	C64
*	*clefG2	*	*	*
.	8c/	.	8cc\	.
.	8e/J	.	8ee\J	.
.	4g/	4.e/	4gg\	.
.	8g#/	.	8gg#\	.
=43	=43	=43	=43	=43
!!pagebreak:original
2.GG/_	8a/L	8f/L	8aa\L	.
.	8f#/	8d#/	8ff#\	.
.	8g/J	8e/J	8gg\J	.
.	8e/L	8c#/L	8ee\L	.
.	8fn/	8dn/	8ffn\	.
.	8d#/J	8Bn/J	8dd#\J	.
=44	=44	=44	=44	=44
4.GG/]	8e/L	8c/L	8ee\L	.
.	8Bn/	8d/	8bn\	.
.	8c/J	8e/J	8cc\J	.
4.FF/	8A/L	4.f/	8a\L	.
.	8d/	.	8dd\	.
.	8f/J	.	8ff\J	.
=45	=45	=45	=45	=45
*	*clefF4	*	*	*
4.GG'/	2.G\	8e/L	4.cc\	.
.	.	8g/	.	.
.	.	8cc/J	.	.
4r	.	8bn/L	4.dd\	V7
.	.	8g/	.	.
24GG/LL	.	8f/J	.	.
24AA/	.	.	.	.
24BBn/JJ	.	.	.	.
=46	=46	=46	=46	=46
8C/L	4.C'/	4.e'/	4.cc'\	I
8C/	.	.	.	.
8C/J	.	.	.	.
8.C/L	4.r	4.a/	4.ff\	IV64
16BBn/K	.	.	.	.
8C/J	.	.	.	.
=47	=47	=47	=47	=47
!!linebreak:original
8C/L	2.r	8g'/	8ee'\	I
8C/	.	4r	4r	.
8C/J	.	.	.	.
8.C/L	.	4.f/	4.dd\	ii42
16BBn/K	.	.	.	.
8C/J	.	.	.	.
=48	=48	=48	=48	=48
8C/L	4.r	8e'/	8cc'\	I
8C/	.	4r	4r	.
8C/J	.	.	.	.
*	*clefG2	*	*	*
8.C/L	4.f/	4.a/	16a\LL	IV64
.	.	.	16bn\	.
.	.	.	16cc\	.
16BBn/K	.	.	16dd\	.
8C/J	.	.	16ee\	.
.	.	.	16ff\JJ	.
=49	=49	=49	=49	=49
8C/L	8e'/	8g'/	16gg\LL	I
.	.	.	16aa\	.
8C/	4r	4r	16bbn\	.
.	.	.	16ccc\	.
8C/J	.	.	16ddd\	.
.	.	.	16eee\JJ	.
8.C/L	4.d/	4.bn\	8fff\L	viio6
.	.	.	16fff\L	.
16BBn/K	.	.	16eee\J	.
8C/J	.	.	8fff\J	.
=50	=50	=50	=50	=50
!!linebreak:original
8CC/L	8c'/	8cc'\	4.eee'\	I
16C/L	4r	4r	.	.
16BBn/J	.	.	.	.
8C/J	.	.	.	.
8C/L	8dd\L	8ff\L	8bbn\L	viio
8C/	16dd\L	16ff\L	16bb\L	.
.	16cc\J	16ee\J	16aa\J	.
8C/J	8dd\J	8ff\J	8bb\J	.
=51	=51	=51	=51	=51
8CC/L	8cc'\	8ee'\	4.ccc'\	I
16C/L	4r	4r	.	.
16BBn/J	.	.	.	.
8C/J	.	.	.	.
8C/L	8d/L	8bn\L	8ff\L	viio6
8C/	16d/L	16b\L	16ff\L	.
.	16c/J	16cc\J	16ee\J	.
8C/J	8d/J	8b\J	8ff\J	.
=52	=52	=52	=52	=52
8CC/L	4.c'/	4.cc'\	4.ee'\	I
16C/L	.	.	.	.
16BBn/J	.	.	.	.
8C/J	.	.	.	.
8C/L	8d/L	8f/L	8bn/L	viio6
8C/	16d/L	16f/L	16b/L	.
.	16c/J	16e/J	16a/J	.
8C/J	8d/J	8f/J	8b/J	.
=53	=53	=53	=53	=53
4.CC'/	4.c'/	4.e'/	4cc'\	I
.	.	.	16e/LL	.
.	.	.	16g/JJ	.
4.r	8e/L	8g/L	8cc\L	.
.	8e/	8g/	8cc\	.
.	8e/J	8g/J	8cc\J	.
=54	=54	=54	=54	=54
!!pagebreak:original
2.r	4.e'/	4.g'/	4cc'\	I
.	.	.	16e/LL	.
.	.	.	16g/JJ	.
.	8e/L	8g/L	8b-\L	.
.	8e/	8g/	8b-\	.
.	8e/J	8g/J	8b-\J	.
=55	=55	=55	=55	=55
*F:	*F:	*F:	*F:	*F:
2.r	8e'/	8g'/	8b-'\	viio
.	4r	4r	4r	.
.	4.r	4.r	4.r	.
*-	*-	*-	*-	*-
